X: 5042
T: Brian O'Lynn
R: jig
M: 6/8
K: Adorian
B|:cAd cAG|EDE GAB|cAd cAG|EAG A2B|
cAd cAG|EDE GAB|cde =fed|1 cA^G A2B:|2 cA^G A2f||
|:gag ged|cAB c2 d|eaa age|age d2f|
gag ged|cAB cde|=fed cAG|1 EA^G A2f:|2 EA^G A2B||

